Numix-GalliumOS/22/status/pamac-wait.svg

<svg xmlns="http://www.w3.org/2000/svg" viewBox="0 0 22 22">
 <path d="m 7 3 l -4 4 l 7 0 l 0 -4 l -3 0 z m 5 0 l 0 4 l 7 0 l -4 -4 l -3 0 z m -9 6 l 0 10 l 10 0 l 0 -4 l 0 -2 l 4 0 l 2 0 l 0 -4 l -16 0 z" style="fill:#c28e5c"/>
 <path d="m 15 15 0 6 2 0 0 -6 z m 4 0 0 6 2 0 0 -6 z" style="fill:#888;opacity:1;fill-opacity:1;stroke:none;fill-rule:nonzero"/>
</svg>

<?xml version="1.0" encoding="UTF-8" standalone="no"?>
<svg
   xmlns:dc="http://purl.org/dc/elements/1.1/"
   xmlns:cc="http://creativecommons.org/ns#"
   xmlns:rdf="http://www.w3.org/1999/02/22-rdf-syntax-ns#"
   xmlns:svg="http://www.w3.org/2000/svg"
   xmlns="http://www.w3.org/2000/svg"
   xmlns:sodipodi="http://sodipodi.sourceforge.net/DTD/sodipodi-0.dtd"
   xmlns:inkscape="http://www.inkscape.org/namespaces/inkscape"
   width="22"
   height="22"
   viewBox="0 0 22 22"
   id="svg2"
   version="1.1"
   inkscape:version="0.91 r"
   sodipodi:docname="pamac-wait.svg">
  <metadata
     id="metadata10">
    <rdf:RDF>
      <cc:Work
         rdf:about="">
        <dc:format>image/svg+xml</dc:format>
        <dc:type
           rdf:resource="http://purl.org/dc/dcmitype/StillImage" />
        <dc:title />
      </cc:Work>
    </rdf:RDF>
  </metadata>
  <defs
     id="defs8" />
  <sodipodi:namedview
     pagecolor="#ffffff"
     bordercolor="#666666"
     borderopacity="1"
     objecttolerance="10"
     gridtolerance="10"
     guidetolerance="10"
     inkscape:pageopacity="0"
     inkscape:pageshadow="2"
     inkscape:window-width="1366"
     inkscape:window-height="747"
     id="namedview6"
     showgrid="true"
     inkscape:zoom="32.000001"
     inkscape:cx="10.624253"
     inkscape:cy="2.3728583"
     inkscape:window-x="0"
     inkscape:window-y="21"
     inkscape:window-maximized="1"
     inkscape:current-layer="svg2">
    <inkscape:grid
       type="xygrid"
       id="grid4138" />
  </sodipodi:namedview>
  <path
     style="fill:#c28e5c"
     d="M 7 3 L 3 7 L 10 7 L 10 3 L 7 3 z M 12 3 L 12 7 L 19 7 L 15 3 L 12 3 z M 3 9 L 3 19 L 13 19 L 13 15 L 13 13 L 17 13 L 19 13 L 19 9 L 3 9 z "
     id="path4-6-7" />
  <path
     inkscape:connector-curvature="0"
     style="opacity:1;fill:#888888;fill-opacity:1;fill-rule:nonzero;stroke:none;stroke-width:6;stroke-linecap:butt;stroke-linejoin:round;stroke-miterlimit:4;stroke-dasharray:none;stroke-dashoffset:0;stroke-opacity:1"
     d="m 15,15 0,6 2,0 0,-6 z m 4,0 0,6 2,0 0,-6 z"
     id="rect4150"
     sodipodi:nodetypes="cccccccccc" />
  <g
     id="g4167-9"
     style="stroke:#000000;stroke-width:6;stroke-linejoin:miter;stroke-miterlimit:4;stroke-dasharray:none;stroke-opacity:1"
     transform="translate(-95.663761,-8.9241741)" />
</svg>
